!!!COM: Al-Soula, Ibrahim Nasir
!!!CDT: b.1935
!!!OTL: National Anthem, Kuwait
!!!ENC: Davis, Matthew J.
!!Vocal Line Only
**kern
*clefG2
*k[]
*C:
*M6/8
=1-
1r
=2
1r
=3
1r
=4
4.r
8r
8r
8g
==!|:5
4cc
8cc
4b
8b
=6
8a
8b
8a
4.g
=7
4.cc
4.g
=8
8f
8g
8a
4g
8g
=9
4b
8b
4a
8a
=10
4b
8b
8g
8a
8g
=11
4.f
4.e
=12
!First Ending
8f
8e
8d
4c
8g
==:|!13
!Second Ending
8f
8e
8d
4c
8c
=14
4g
8g
4.g
=15
8a
8g
8f
4g
8g
=16
4a
8a
4.a
=17
8b
8a
8g
4a
8g
=18
4ee
8ee
4dd
8dd
=19
4b
8b
4.g
=20
4.cc
4.cc
=21
8ee
8ee
8ee
8ee
8ee
8ee
=22
8ee
8ee
8ee
4ee
8r
=23
4.g
4g
8g
=24
4.g
4.g
=25
4g
8g
4.f
=26
4a
8a
4.a
=27
4.a
4a
8a
=28
4.a
4a
8a
=29
4a
8a
4.g
=30
4b
8b
4.b
=31
4.cc
4b
8b
=32
4.a
4.g
=33
4f
8f
4.e
=34
4dd
8dd
4.dd
=35
4ee
8ee
4dd
8dd
=36
4.cc
4b
8b
=37
4a
8a
4.g
=38
4.cc
4.cc
=39
8ee
8ee
8ee
8ee
8ee
8ee
=40
8ee
8ee
8ee
8ee
8r
8g
==!|:41
4cc
8cc
4b
8b
=42
8a
8b
8a
4.g
=43
4.cc
4.gg
=44
8f
8g
8a
4g
8g
=45
4b
8b
4a
8a
=46
4b
8b
8g
8a
8g
=47
4.f
4.e
=48
!First Ending
8f
8e
8d
4c
8g
==:|!49
!Second Ending
8f
8e
8d
4c
8c
=50
4g
8g
4.g
=51
8a
8g
8f
4g
8g
=52
4a
8a
4.a
=53
8b
8a
8g
4a
8g
=54
4ee
8ee
4dd
8dd
=55
4b
8b
4.g
=56
4.cc
4.cc
=57
8ee
8ee
8ee
8ee
8ee
8ee
=58
8ee
8ee
8ee
4ee
8r
==|!
*-
